X:123
M:6/8
L:1/8
K:A
|: efe edc | dcB gab | ded dcB | cAc fga | fdB Gee | cAF [DB][B,c]d | cde fga | cdB A3 :|

